icons/2_Variations/ControlD fg.var.svg

<svg width="1024" height="1024" fill="none" xmlns="http://www.w3.org/2000/svg"><g clip-path="url(#a)"><path d="M512 1024c282.77 0 512-229.23 512-512S794.77 0 512 0 0 229.23 0 512s229.23 512 512 512Z" fill="#F9DE81"/><path d="M349.24 522.17a152.585 152.585 0 0 1 140.975 94.197 152.595 152.595 0 0 1 11.615 58.393H369.59A152.59 152.59 0 0 1 217 522.17h132.24Zm457.76 0a152.587 152.587 0 0 1-152.59 152.59H522.17a152.59 152.59 0 0 1 152.59-152.59H807ZM501.83 349.24a152.596 152.596 0 0 1-44.693 107.898A152.582 152.582 0 0 1 349.24 501.83H217a152.59 152.59 0 0 1 152.59-152.59h132.24Zm152.59 0A152.59 152.59 0 0 1 807 501.83H674.76a152.59 152.59 0 0 1-152.59-152.59h132.25Z" fill="#56595B"/></g><defs><clipPath id="a"><path fill="#fff" d="M0 0h1024v1024H0z"/></clipPath></defs></svg>

<svg width="1024" height="1024" viewBox="0 0 1024 1024" fill="none" xmlns="http://www.w3.org/2000/svg">
<g clip-path="url(#clip0_3_44)">
<path d="M512 1024C794.77 1024 1024 794.77 1024 512C1024 229.23 794.77 0 512 0C229.23 0 0 229.23 0 512C0 794.77 229.23 1024 512 1024Z" fill="#F9DE81"/>
<path d="M349.24 522.17C369.278 522.17 389.121 526.117 407.634 533.785C426.147 541.454 442.968 552.693 457.137 566.863C471.307 581.032 482.546 597.854 490.215 616.367C497.883 634.88 501.83 654.722 501.83 674.76H369.59C329.121 674.76 290.309 658.684 261.693 630.068C233.076 601.452 217 562.64 217 522.17H349.24ZM807 522.17C807 562.64 790.924 601.452 762.307 630.068C733.691 658.684 694.879 674.76 654.41 674.76H522.17C522.17 634.291 538.246 595.479 566.863 566.863C595.479 538.247 634.291 522.17 674.76 522.17H807ZM501.83 349.24C501.83 369.279 497.883 389.121 490.215 407.634C482.546 426.147 471.307 442.968 457.137 457.138C442.968 471.307 426.147 482.547 407.634 490.215C389.121 497.883 369.278 501.83 349.24 501.83H217C217 461.361 233.076 422.549 261.693 393.933C290.309 365.317 329.121 349.24 369.59 349.24H501.83ZM654.42 349.24C694.888 349.243 733.697 365.32 762.311 393.936C790.925 422.552 807 461.363 807 501.83H674.76C634.291 501.83 595.479 485.754 566.863 457.138C538.246 428.521 522.17 389.71 522.17 349.24H654.42Z" fill="#56595B"/>
</g>
<defs>
<clipPath id="clip0_3_44">
<rect width="1024" height="1024" fill="white"/>
</clipPath>
</defs>
</svg>
